src/main/resources/icons/AllIcons/general/warningDialog_dark.svg

<svg xmlns="http://www.w3.org/2000/svg" width="32" height="32" viewBox="0 0 32 32"><rect id="frame" width="32" height="32" fill="none"/><path fill="#F0A732" fill-rule="evenodd" d="M16 2l15 26H1L16 2zm2 23v-4h-4v4h4zm0-7v-8h-4v8h4z"/></svg>

<!-- Copyright 2000-2021 JetBrains s.r.o. Use of this source code is governed by the Apache 2.0 license that can be found in the LICENSE file. -->
<svg xmlns="http://www.w3.org/2000/svg" width="32" height="32" viewBox="0 0 32 32">
  <path fill="#F0A732" fill-rule="evenodd" d="M16,2 L31,28 L1,28 L16,2 Z M18,25 L18,21 L14,21 L14,25 L18,25 Z M18,18 L18,10 L14,10 L14,18 L18,18 Z"/>
</svg>
